X:17
T:Bird Walk
M:C|
L:1/8
C:© Paul Gitlitz 2003
R:Calypso Feel
B:Hunters and Gatherers
K:G
"G"GBde- "(Em)"edBA|"G"[GB]G2G-G2AG|"D"FAcd- "(D7)"dcAF|"G"[GB]"G"G2G GDED|!
"G"GBde- "(Em)"edBA|"G"[GB]G2G-G2AG|"D"FAcd- "(D7)"dcAF|1"G"[GB]G2G GDED:|2"G"[GB]G2G- G"G7"GF2|!
|:"C"EE2E- "(Am)"EAE2|"G"DD2D- DBG2|"D"FF2F- "(D7)"FcA2|"G"GG2G- "G7"GdB2|!
"C"cc2c- "(Am)"ced2|"G"[dg][d2g2][dg] [dg][da][d2g2]|"D"[df][d2f2][df] [df][df]"(D7)"[c2f2]|1"G"[Bg][B2g2][Bg][B2g2]GF:|2"G"gdBG- Gz3|]
